X:1
T:Title
%%score [ ( 1 2 ) ( 3 4 ) ]
L:1/8
Q:1/4=240
M:4/4
K:D
V:1 treble nm="Midi_74"
V:2 treble 
V:3 bass nm="Midi_74"
V:4 bass 
V:1
"^Richard Woodward\n(1744-77)" A8 | A4 A4 | d8 || F8 | B4 A4 | G4 F4 | E8 || A6 G2 | F4 d4 | c8 || %10
 d8 | D4 E4 | F4 E4 | D8 |] %14
V:2
 F8 | D4 E4 | F8 || D8 | G4 D4 | C4 D4 | C8 || E8 | D4 E4 | E8 || F8 | D4 D4 | D4 C4 | D8 |] %14
V:3
 A,8 | F4 E4 | D8 || D8 | D4 A,4 | A,4 A,4 | A,8 || C8 | D4 B,4 | A,8 || A,8 | B,4 B,4 | A,6 G,2 | %13
 F,8 |] %14
V:4
 D,8 | D4 C4 | B,8 || B,6 A,2 | G,4 F,4 | E,4 D,4 | A,,8 || A,8 | B,4 ^G,4 | A,8 || F,8 | B,4 G,4 | %12
 A,4 A,,4 | D,8 |] %14

